X:188
T: Abfertigung
N: A0221
O: Europa, Mitteleuropa, Deutschland
N: None, Anzeiger VI, 1837, Beil. II. No. 7. Original: Cod. von
N: St. Blasien, 15. Jh.
R: Romanze, Ballade, Lied
M: 4/4
L: 1/4
K: A
AAA | B2BB | eed=c | B2z2
=ccdd | e2dd | eed=c | B2z2
BB=cc | BAB2 | BBEE | =GGAA | B2z
B | dAB=c | ed=cc | BAA2

